icons-rebrand/svg/people-regular.svg

<svg xmlns="http://www.w3.org/2000/svg" width="32" height="32" viewBox="0 0 32 32"><path d="M23.23 16.757C23.8836 16.317 24.4397 15.7474 24.8637 15.0834C25.2878 14.4194 25.5708 13.6753 25.6952 12.8973C25.8196 12.1194 25.7826 11.3241 25.5866 10.561C25.3906 9.79795 25.0398 9.08332 24.556 8.46155C24.0721 7.83978 23.4656 7.32416 22.774 6.94672C22.0824 6.56928 21.3207 6.33808 20.536 6.2675C19.7513 6.19693 18.9605 6.28847 18.2127 6.53645C17.4649 6.78442 16.776 7.18353 16.189 7.70898C16.2304 7.47611 16.2541 7.24044 16.26 7.00398C16.2651 6.19869 16.0653 5.40533 15.6795 4.69845C15.2937 3.99158 14.7345 3.3944 14.0544 2.96303C13.3744 2.53167 12.5958 2.28028 11.792 2.23249C10.9881 2.18471 10.1852 2.34209 9.45887 2.68985C8.73252 3.03761 8.10651 3.56434 7.63967 4.22053C7.17282 4.87672 6.88048 5.64082 6.7901 6.44105C6.69972 7.24127 6.81428 8.05134 7.12301 8.79512C7.43174 9.5389 7.92451 10.192 8.555 10.693C6.80066 11.1479 5.23976 12.1564 4.10397 13.5687C2.96817 14.981 2.31802 16.7219 2.25 18.533C2.25 19.585 2.793 21.054 5.38 22.083C7.023 22.678 8.751 23.003 10.498 23.048C10.3356 23.6772 10.2523 24.3242 10.25 24.974C10.25 26.074 10.82 27.61 13.535 28.69C15.6069 29.4335 17.7971 29.7928 19.998 29.75C24.851 29.75 29.748 28.274 29.748 24.974C29.6785 23.0888 29.0089 21.2751 27.8366 19.7971C26.6644 18.319 25.0508 17.2539 23.231 16.757H23.23ZM20 7.75498C21.1158 7.77129 22.1804 8.22578 22.9639 9.0203C23.7475 9.81482 24.1871 10.8856 24.1879 12.0015C24.1887 13.1174 23.7505 14.1889 22.9681 14.9845C22.1857 15.7801 21.1217 16.2361 20.006 16.254H19.993C18.8658 16.2531 17.7852 15.8044 16.9888 15.0067C16.1924 14.209 15.7456 13.1277 15.7465 12.0005C15.7474 10.8733 16.1961 9.79268 16.9938 8.9963C17.7915 8.19993 18.8728 7.75305 20 7.75398V7.75498ZM8.26 7.00398C8.26 6.14203 8.60241 5.31538 9.2119 4.70589C9.8214 4.09639 10.648 3.75398 11.51 3.75398C12.372 3.75398 13.1986 4.09639 13.8081 4.70589C14.4176 5.31538 14.76 6.14203 14.76 7.00398C14.76 7.86594 14.4176 8.69259 13.8081 9.30208C13.1986 9.91157 12.372 10.254 11.51 10.254C10.648 10.254 9.8214 9.91157 9.2119 9.30208C8.60241 8.69259 8.26 7.86594 8.26 7.00398ZM11.02 21.578C6.843 21.485 3.75 20.21 3.75 18.533C3.75 14.796 7.228 11.755 11.502 11.755C12.4393 11.7551 13.3703 11.9071 14.259 12.205C14.29 13.1074 14.5332 13.9899 14.9689 14.7807C15.4047 15.5716 16.0207 16.2487 16.767 16.757C15.5304 17.1247 14.3823 17.7422 13.3938 18.5712C12.4053 19.4003 11.5974 20.4233 11.02 21.577V21.578ZM19.998 28.25C15.295 28.25 11.749 26.842 11.749 24.974C11.749 20.992 15.449 17.754 19.999 17.754C24.548 17.754 28.247 20.992 28.247 24.974C28.247 26.842 24.701 28.25 19.997 28.25H19.998Z"/></svg>

<svg width="32" height="32" viewBox="0 0 32 32" xmlns="http://www.w3.org/2000/svg"><path d="M23.23 16.757a5.745 5.745 0 1 0-7.041-9.048 4.69 4.69 0 0 0 .071-.705 4.75 4.75 0 1 0-7.705 3.689 8.426 8.426 0 0 0-6.305 7.84c0 1.052.543 2.521 3.13 3.55 1.643.595 3.371.92 5.118.965a7.817 7.817 0 0 0-.248 1.926c0 1.1.57 2.636 3.285 3.716a18.091 18.091 0 0 0 6.463 1.06c4.853 0 9.75-1.476 9.75-4.776a8.856 8.856 0 0 0-6.517-8.217ZM20 7.755a4.25 4.25 0 0 1 .006 8.499h-.013a4.25 4.25 0 0 1 .007-8.5ZM8.26 7.004a3.25 3.25 0 1 1 6.5 0 3.25 3.25 0 0 1-6.5 0Zm2.76 14.574c-4.177-.093-7.27-1.368-7.27-3.045 0-3.737 3.478-6.778 7.752-6.778a8.68 8.68 0 0 1 2.757.45 5.746 5.746 0 0 0 2.508 4.552 9.432 9.432 0 0 0-5.747 4.82Zm8.978 6.672c-4.703 0-8.249-1.408-8.249-3.276 0-3.982 3.7-7.22 8.25-7.22 4.549 0 8.248 3.238 8.248 7.22 0 1.868-3.546 3.276-8.25 3.276Z"/></svg>
